img/most.svg

<svg width="52" height="52" viewBox="0 0 52 52" fill="none" xmlns="http://www.w3.org/2000/svg">
<circle cx="26" cy="26" r="25" fill="white" stroke="#172343" stroke-width="2"/>
<path d="M43.6109 33.8333H34.8959V32.1824H43.6109C43.8055 32.1824 43.9611 32.0252 43.9611 31.8286C43.9611 31.6321 43.8055 31.4355 43.6109 31.4355C39.8759 31.4355 36.4911 27.1116 34.8959 20.4292V13.3538C34.8959 13.1572 34.7403 13 34.5457 13C34.3512 13 34.1956 13.1572 34.1956 13.3538V20.1541C32.6393 23.2594 29.2545 25.2641 25.4805 25.2641C21.7455 25.2641 18.3607 23.2594 16.7655 20.1541V13.3538C16.7655 13.1572 16.6099 13 16.4154 13C16.2208 13 16.0652 13.1572 16.0652 13.3538V20.4292C14.5089 27.1116 11.0852 31.4355 7.35016 31.4355C7.15563 31.4355 7 31.5928 7 31.7893C7 31.9858 7.15563 32.1431 7.35016 32.1431H16.0652V33.794H7.42797C7.23344 33.794 7.07781 33.9513 7.07781 34.1478C7.07781 34.3443 7.23344 34.5016 7.42797 34.5016H16.143V37.6462C16.143 37.8428 16.2986 38 16.4932 38C16.6877 38 16.8433 37.8428 16.8433 37.6462V34.5016H34.2345V37.6462C34.2345 37.8428 34.3901 38 34.5846 38C34.7792 38 34.9348 37.8428 34.9348 37.6462V34.5016H43.6498C43.8444 34.5016 44 34.3443 44 34.1478C44 33.9906 43.8055 33.8333 43.6109 33.8333ZM40.8486 31.4355H34.8959V22.9843C36.2965 27.1509 38.3975 30.1777 40.8486 31.4355ZM34.2345 21.5299V31.4355H30.4606V24.7925C31.9779 24.0063 33.2618 22.9057 34.2345 21.5299ZM25.1693 31.4355H21.3176V25.1069C22.5237 25.6179 23.8076 25.8931 25.1693 25.9324V31.4355ZM25.8696 25.9717C27.2313 25.9324 28.5542 25.6572 29.7213 25.1462V31.4355H25.8696V25.9717ZM20.5783 24.7925V31.4355H16.8044V21.5299C17.7382 22.9057 19.061 24.0063 20.5783 24.7925ZM10.1903 31.4355C12.6414 30.1384 14.7813 27.1509 16.143 22.9843V31.4355H10.1903ZM16.8044 33.8333V32.1824H34.1956V33.8333H16.8044Z" fill="black"/>
</svg>

<svg xmlns="http://www.w3.org/2000/svg" width="52" height="52" fill="none"><circle cx="26" cy="26" r="25" fill="#fff" stroke="#172343" stroke-width="2"/><path fill="#000" d="M43.61 33.833h-8.714v-1.65h8.715a.35.35 0 0 0 .35-.354c0-.197-.155-.393-.35-.393-3.735 0-7.12-4.324-8.715-11.007v-7.075a.35.35 0 1 0-.7 0v6.8c-1.557 3.105-4.941 5.11-8.715 5.11-3.736 0-7.12-2.005-8.716-5.11v-6.8a.35.35 0 1 0-.7 0v7.075c-1.556 6.683-4.98 11.007-8.715 11.007a.35.35 0 0 0-.35.353.35.35 0 0 0 .35.354h8.715v1.651H7.428a.35.35 0 0 0-.35.354.35.35 0 0 0 .35.354h8.715v3.144a.35.35 0 1 0 .7 0v-3.144h17.391v3.144a.35.35 0 1 0 .7 0v-3.144h8.716a.35.35 0 0 0 .35-.354c0-.157-.194-.315-.39-.315Zm-2.761-2.397h-5.953v-8.452c1.4 4.167 3.502 7.194 5.953 8.451Zm-6.614-9.906v9.905H30.46v-6.642a10.491 10.491 0 0 0 3.773-3.263Zm-9.066 9.905h-3.851v-6.328c1.206.51 2.49.786 3.851.825v5.504Zm.7-5.463c1.362-.04 2.685-.315 3.852-.826v6.29H25.87v-5.464Zm-5.29-1.18v6.643h-3.775V21.53c.934 1.376 2.257 2.476 3.774 3.262ZM10.19 31.436c2.451-1.297 4.591-4.284 5.953-8.45v8.45H10.19Zm6.614 2.398v-1.65h17.392v1.65H16.804Z"/></svg>
